elements/rpg-character/lib/hat/party.svg

<svg xmlns="http://www.w3.org/2000/svg" fill="none" width="113" height="142" viewBox="0 0 113 142"><path d="M94 32v5h-8v-2h-5v-3h-3v-2.5h-2.5V27H73v-3h-3v-5h-2v-8h5V9h10V7h15v15h-2v10h-2Z" fill="#5DB9EC"/><path d="M73 9v2.5M83 9V7" stroke="#3C4DA5"/><path d="M72.5 11v4h1v3h1v2.5h1v2H77v2h1.5V26H80v1.5h1.5V29h2v1.5h3v1H89v1h3.5v1H94M82.5 9v2h1v2.5h1v2h1V17H87v2h2v1.5h2v1h2v1h2v1h1.5M92.5 7v1h1v2H95v2h2v1.5h1" stroke="#3C4DA5" stroke-width="2"/><path d="M66 11h2V9h5V7h10V5h15v2h2v15h-2v10h-2v5h-2v2h-8v-2h-5v-2h-3v-3h-2.5v-2.5H73V27h-3v-3h3v3h2.5v2.5H78V32h3v3h5v2h8v-5h2V22h2V7H83v2H73v2h-5v8h-2v-8Z" fill="#000"/><path d="M70 19h-2v5h2v-5Z" fill="#000"/><path d="M83 33v-3.5h-5V32h3v3h5v2h8v-5h2V22h2V9h-3v10h-2v10h-2v4h-8Z" fill="#361351" style="mix-blend-mode:soft-light"/><path d="M76 11v2h-6v5h2v5h1v1h-3v-5h-2v-8h5V9h10V7h15v2H86v2H76Z" fill="#FEB35C" style="mix-blend-mode:luminosity"/></svg>

<svg width="113" height="142" viewBox="0 0 113 142" fill="none" xmlns="http://www.w3.org/2000/svg">
<path d="M94 32V37H91H86V35H83H81V32H78V29.5H75.5V27H73V24H70V22V19H68V14V11H73V9H83V7H98V22H96V32H94Z" fill="#5DB9EC"/>
<path d="M73 9V11.5M83 9V7" stroke="#3C4DA5"/>
<path d="M72.5 11V15H73.5V18H74.5V20.5H75.5V22.5H77V24.5H78.5V26H80V27.5H81.5V29H83.5V30.5H86.5V31.5H89V32.5H92.5V33.5H94M82.5 9V11H83.5V13.5H84.5V15.5H85.5V17H87V19H89V20.5H91V21.5H93V22.5H95V23.5H96.5M92.5 7V8H93.5V10H95V12H97V13.5H98" stroke="#3C4DA5" stroke-width="2"/>
<path d="M66 11H68V9H73V7H83V5H98V7H100V22H98V32H96V37H94V39H86V37H81V35H78V32H75.5V29.5H73V27H70V24H73V27H75.5V29.5H78V32H81V35H86V37H94V32H96V22H98V7H83V9H73V11H68V19H66V11Z" fill="black"/>
<path d="M70 19H68V24H70V19Z" fill="black"/>
<g style="mix-blend-mode:soft-light">
<path d="M83 33V29.5H78V32H81V35H86V37H94V32H96V22H98V9H95V19H93V29H91V33H83Z" fill="#361351"/>
</g>
<g style="mix-blend-mode:luminosity">
<path d="M76 11V13H70V18H72V23H73V24H70V19H68V14V11H73V9H83V7H98V9H86V11H76Z" fill="#FEB35C"/>
</g>
</svg>
